build/img/svg/star-white.svg

<svg width="15" height="15" viewBox="0 0 15 15" fill="none" xmlns="http://www.w3.org/2000/svg">
<path d="M7.5 0L8.30709 4.7513L11.5548 1.1906L9.66503 5.62399L14.3222 4.38439L10.3356 7.0923L14.9237 8.56736L10.1059 8.69006L13.1681 12.4115L9.0488 9.90998L9.61299 14.6962L7.5 10.3647L5.38701 14.6962L5.9512 9.90998L1.83188 12.4115L4.89414 8.69006L0.0763392 8.56736L4.66441 7.0923L0.67776 4.38439L5.33497 5.62399L3.44519 1.1906L6.69291 4.7513L7.5 0Z" fill="white"/>
</svg>

<svg width="15" height="15" fill="none" xmlns="http://www.w3.org/2000/svg"><path d="M7.5 0l.807 4.751 3.248-3.56-1.89 4.433 4.657-1.24-3.986 2.708 4.588 1.475-4.818.123 3.062 3.722-4.12-2.502.565 4.786L7.5 10.365l-2.113 4.331.564-4.786-4.12 2.502L4.895 8.69.076 8.567l4.588-1.475L.678 4.384l4.657 1.24-1.89-4.433 3.248 3.56L7.5 0z" fill="#fff"/></svg>
